updated-assets/images/healthcare (1).svg

<svg width="32" height="32" viewBox="0 0 32 32" fill="none" xmlns="http://www.w3.org/2000/svg">
<path d="M13.4155 1.84619H12.9232V3.07696H13.4155C14.2155 3.07696 14.8924 3.75388 14.8924 4.55388V10.0308C14.8924 13.2308 12.4924 16 9.29241 16.1847C5.78471 16.4308 2.89241 13.6616 2.89241 10.2154V4.55388C2.89241 3.75388 3.56933 3.07696 4.36933 3.07696H4.86164V1.84619H4.30779C2.83087 1.84619 1.6001 3.07696 1.6001 4.55388V10.0308C1.6001 13.7847 4.36933 17.1077 8.18471 17.477C12.4924 17.9077 16.1232 14.4616 16.1232 10.277V4.55388C16.1232 3.01542 14.8924 1.84619 13.4155 1.84619Z" fill="#E6E6E5"/>
<path d="M16.1846 8.73837C15.9999 8.55376 15.7538 8.43068 15.5076 8.43068H15.323C14.8923 8.49222 14.523 8.92299 14.523 9.41529V10.1538C14.523 13.2922 11.9999 15.8153 8.86148 15.8153H8.49225C5.53841 15.6307 3.19994 13.0461 3.19994 9.96914V9.35376C3.19994 8.79991 2.76917 8.36914 2.21533 8.36914C1.66148 8.36914 1.23071 8.79991 1.23071 9.35376V10.1538C1.23071 14.3384 4.61533 17.723 8.79994 17.723C9.0461 17.723 9.29225 17.723 9.53841 17.6614C13.3538 17.2922 16.3692 13.9076 16.3692 9.9076V9.35376C16.4307 9.16914 16.3692 8.92299 16.1846 8.73837Z" fill="#98D0F1"/>
<path d="M12.1846 3.6925C12.8644 3.6925 13.4154 3.14146 13.4154 2.46173C13.4154 1.78199 12.8644 1.23096 12.1846 1.23096C11.5049 1.23096 10.9539 1.78199 10.9539 2.46173C10.9539 3.14146 11.5049 3.6925 12.1846 3.6925Z" fill="#676767"/>
<path d="M5.53839 3.6925C6.21812 3.6925 6.76916 3.14146 6.76916 2.46173C6.76916 1.78199 6.21812 1.23096 5.53839 1.23096C4.85865 1.23096 4.30762 1.78199 4.30762 2.46173C4.30762 3.14146 4.85865 3.6925 5.53839 3.6925Z" fill="#676767"/>
<path d="M25.9691 5.29248C23.8768 5.29248 22.1537 6.64633 21.5384 8.49248C20.923 6.64633 19.1384 5.29248 17.1076 5.29248C14.523 5.29248 12.4307 7.38479 12.4307 9.9694C12.4307 15.2617 21.5999 20.8002 21.5999 20.8002C21.5999 20.8002 30.7691 15.3848 30.7691 9.9694C30.7076 7.38479 28.6153 5.29248 25.9691 5.29248Z" fill="#EC7B72"/>
<path d="M25.5999 12.1846V22.0307C25.5999 26.8307 21.723 30.7076 16.923 30.7076C12.123 30.7076 8.24609 26.8307 8.24609 22.0307V17.723H9.47686V22.0307C9.47686 26.1538 12.7999 29.4769 16.923 29.4769C21.0461 29.4769 24.3692 26.1538 24.3692 22.0307V12.1846H25.5999Z" fill="#525252"/>
<path d="M24.9232 15.6305C26.7585 15.6305 28.2463 14.1427 28.2463 12.3075C28.2463 10.4722 26.7585 8.98438 24.9232 8.98438C23.0879 8.98438 21.6001 10.4722 21.6001 12.3075C21.6001 14.1427 23.0879 15.6305 24.9232 15.6305Z" fill="#E6E6E5"/>
<path d="M24.923 13.9075C25.8067 13.9075 26.523 13.1912 26.523 12.3075C26.523 11.4239 25.8067 10.7075 24.923 10.7075C24.0393 10.7075 23.323 11.4239 23.323 12.3075C23.323 13.1912 24.0393 13.9075 24.923 13.9075Z" fill="#CDCCCC"/>
</svg>

<svg width="32" height="32" fill="none" xmlns="http://www.w3.org/2000/svg"><path d="M13.415 1.846h-.492v1.231h.492c.8 0 1.477.677 1.477 1.477v5.477c0 3.2-2.4 5.969-5.6 6.154a5.968 5.968 0 0 1-6.4-5.97V4.554c0-.8.677-1.477 1.477-1.477h.493v-1.23h-.554C2.83 1.846 1.6 3.076 1.6 4.553v5.477c0 3.754 2.77 7.077 6.585 7.446 4.307.43 7.938-3.015 7.938-7.2V4.554a2.692 2.692 0 0 0-2.708-2.708Z" fill="#E6E6E5"/><path d="M16.185 8.738c-.185-.184-.431-.307-.677-.307h-.185c-.43.061-.8.492-.8.984v.739a5.647 5.647 0 0 1-5.662 5.661h-.369C5.538 15.631 3.2 13.046 3.2 9.97v-.615a.972.972 0 0 0-.985-.985.972.972 0 0 0-.984.985v.8A7.564 7.564 0 0 0 8.8 17.723c.246 0 .492 0 .738-.062 3.816-.369 6.831-3.753 6.831-7.753v-.554c.062-.185 0-.431-.184-.616Z" fill="#98D0F1"/><path d="M12.185 3.692a1.23 1.23 0 1 0 0-2.461 1.23 1.23 0 0 0 0 2.462Zm-6.647 0a1.23 1.23 0 1 0 0-2.461 1.23 1.23 0 0 0 0 2.462Z" fill="#676767"/><path d="M25.97 5.292a4.658 4.658 0 0 0-4.432 3.2c-.615-1.846-2.4-3.2-4.43-3.2A4.675 4.675 0 0 0 12.43 9.97c0 5.292 9.17 10.83 9.17 10.83s9.17-5.415 9.17-10.83a4.781 4.781 0 0 0-4.8-4.678Z" fill="#EC7B72"/><path d="M25.6 12.185v9.846c0 4.8-3.877 8.677-8.677 8.677a8.667 8.667 0 0 1-8.677-8.677v-4.308h1.23v4.308a7.433 7.433 0 0 0 7.447 7.446 7.433 7.433 0 0 0 7.446-7.446v-9.846h1.23Z" fill="#525252"/><path d="M24.923 15.63a3.323 3.323 0 1 0 0-6.646 3.323 3.323 0 0 0 0 6.646Z" fill="#E6E6E5"/><path d="M24.923 13.908a1.6 1.6 0 1 0 0-3.2 1.6 1.6 0 0 0 0 3.2Z" fill="#CDCCCC"/></svg>
